X:50
T:50 Untitled Polka
C:Welch MS
I:abc2nwc
M:2/4
L:1/16
K:G
de/2f/2|g2g2 d2d2|edef g2e2|d2g2 edcB|B2A2 A2de/2f/2|
g2g2 d2d2|edef g2e2|dgfe dcBA|G2G2 G2:|
GA|B2B2 B2d2|^c2e2 e2g2|f2d2 fed^c|d2d2 d2dc|
B2g2 g2e2|d2g2 g2e2|dgfe dcBA|G2G2 G2:|
B2|e2e2 e2g2|B2B2 B2e2|G2G2 G2B2|E6F2|
G2B2 B2e2|A2A2 c2f2|g2f2 e2^d2| e6:|

